X:1
T:Title
%%score ( 1 2 ) ( 3 4 )
L:1/8
Q:1/4=110
M:4/4
K:G
V:1 treble nm="Grand Piano, Unnamed-000"
V:2 treble 
V:3 bass nm="Choir Pad, St. Stephen, CM"
V:4 bass 
V:1
 [DG]2 [Dd]2 [DB]2 [EG]2 | .A2 z2 G2 z2 | B^c [Dd]2 [B,G][CA] [DB]2 | A-[CA] [B,G]6 | %4
w: By~William~Jones,~1789 * * *||||
 [DB]2 [Cc]2 [DA]2 [DB]2 | [Gc]2 [Gd]2 AG [DF]2 | [CE]2 [B,D]2 [B,G][CA] [DB]2 | A-[CA] [B,G]6- | %8
w: ||||
 [B,G]2 z2 z4 |] %9
w: |
V:2
 x8 | E-[EG] [DF]2 D^C [DA]2 | D2 z2 z4 | .D2 z2 z4 | x8 | z4 E2 z2 | x8 | .D2 z2 z4 | x8 |] %9
V:3
 [G,B,]2 [F,A,]2 G,2 [E,B,]2 | [C,C]2 [D,A,]2 [E,G,]2 [D,F,]2 | G,2 z2 z4 | [D,F,]2 [G,,G,]6 | %4
 G,2 [E,G,]2 [F,A,]2 G,2 | z4 .C2 z2 | [E,G,][F,A,] [G,B,]2 [E,G,]2 [D,G,]2 | [D,F,]2 [G,,G,]6- | %8
 [G,,G,]2 z2 z4 |] %9
V:4
 x8 | x8 | G,,A,, [B,,G,]2 [E,G,]2 [D,G,]2 | x8 | x8 | [E,G,]2 [B,,G,]2 C,-[C,B,] [D,A,]2 | x8 | %7
 x8 | x8 |] %9

